X:1
T:Alma Redemptoris - Webbe
T:#
%%score { 1 | 2 } { ( 3 4 ) | 5 }
L:1/8
Q:1/4=72
M:4/4
K:Bb
V:1 treble nm="Treble" snm="S"
V:2 treble 
V:3 treble nm="Organ"
V:4 treble 
V:5 bass 
V:1
"^andante""^Alma Redemptoris""^Samuel Webbe\n(1740-1816)" z8 | z8 | z8 | z8 | z8 | %5
w: |||||
 z8[Q:1/4=36][Q:1/4=72] |[M:4/4] z8 | B4 A4 | f2 d2 B2 GG | e2 c2 AF z A | BF z B cF z F | %11
w: ||Por- ta,|por- ta ma- nes, et|stel- la ma- ris, suc-|cur- re ca- den- ti, suc-|
 FE z E ED z2 | d>c (c/f/) (=e/f/){c} B2 A2 | z d (Td/c/) (Tc/B/) A>F F2 | %14
w: cur- re ca- den- ti|sur- ge- re * qui * * rat,|qui cu\- * rat * po- pu- lo:|
 (f/>e/) (e/>d/) (d/>c/) (d/>e/) (f>g) e2 | (A/>B/) (B/>c/) (c/>d/) (e/4d/4e/4c/4) (f>e) d2 | %16
w: Tu * quae * ge\- * nu\- * i\- * sti,|tu * quae * ge\- * nu\- * * * i\- * sti,|
 z d de/f/ !wedge!g!wedge!f z2 | B2 A2 d2 c2 | f3 e d2[Q:1/4=36] !fermata!c2 | z8 | B4 A4 | %21
w: na- tu- ra mi- ran- te,|tu- um san- ctum|Ge- ni- to- rem:||Vir- go,|
 f2 d2 B2 G2 | z8 | B2 c2 d2 ff | e4 d4 | f2 e2 d2 c2 | B2[Q:1/4=54] !fermata!e4[Q:1/4=72] z2 | %27
w: Vir- go pri- us||Ga- bri- e- lis ab|o- re|su- mens il- lud|A- ve,|
 z2 AB cdec | d2 d2 z2 dd |[Q:1/4=54] (!fermata!d4[Q:1/4=72] Tc4) | B4 z4 |] %31
w: pec- ca- to- rum mi- se-|re- re, mi- se-|re\- *|re.|
V:2
 z8 | B4 A4 | f2 d2 B2 G2 | e2 c2 AF z A | (B2 c2 d2) cc | (d2 =e2 !fermata!f2) F2 |[M:4/4] z8 | %7
w: |Al- ma,|al- ma Re- dem-|pto- ris Ma- ter, quae|per * * vi- a|cae\- * * li||
 z8 | z8 | z8 | z8 | z8 | z8 | z8 | (d/>c/) (c/>B/) (B/>A/) (B/>c/) (d>e) c2 | %15
w: |||||||Tu * quae * ge\- * nu\- * i\- * sti,|
 (F/>G/) (G/>A/) (A/>B/) (c/4B/4c/4A/4) (d>c) B2 | z B Bc/d/ !wedge!e!wedge!d z2 | z4 B2 A2 | %18
w: tu * quae * ge\- * nu\- * * * i\- * sti,|na- tu- ra mi- ran- te,|tu- um|
 dddc B2 !fermata!A2 | z8 | z8 | z8 | e2 c2 A>F F2 | B2 A2 B2 dd | c4 B4 | d2 c2 B2 A2 | %26
w: san- ctum Ge- ni- to- rem:||||ac po- ste- ri- us|Ga- bri- e- lis ab|o- re|su- mens il- lud|
 G2 !fermata!G4 z2 | z2 FG ABcA | B2 B2 z2 BB | (!fermata!B4 TA4) | B4 z4 |] %31
w: A- ve,|pec- ca- to- rum mi- se-|re- re, mi- se-|re\- *|re.|
V:3
"^andante" z8 | (B4 A4) | (f2 d2) (B2 G2) | (e2 c2) (AF) z A | (B2 c2) (d2 c2) | %5
 (d2 =e2) !fermata!f2 F2 |[M:4/4] z8 | B4 A4 | (f2 d2) (B2 G2) | (e2 c2) (AF) z A | %10
 (BF) z B (cF) z F | (FE) z E (ED) z2 | (d>c) (c/f/=e/f/) (cB A2) | %13
 dd (d/c/) (c/B/) [CA]>[A,F] [A,F]2 | %14
 [df]/>[ce]/[ce]/>[Bd]/ [Bd]/>[Ac]/[Bd]/>[ce]/ [df]>[eg] [ce]2 | %15
 ([FA]/>[GB]/) ([GB]/>[Ac]/) ([Ac]/>[Bd]/) ([ce]/4[Bd]/4[ce]/4[Ac]/4) ([df]>[ce] [Bd]2) | %16
 [FBd][Bd] [Bd][ce]/[df]/ !wedge![eg] !wedge![df] z2 | (B2 A2) ([Bd]2 [Ac]2) | %18
 f3 e ([Bd]2 !fermata![Ac]2) | z8 | (B4 A4) | (f2 d2) (B2 G2) | (e2 c2) (A>F) F2 | %23
 (B2 [Ac]2) ([Bd]2 [df])[df] | ([ce]4 [Bd]4) | ([df]2 [ce]2) ([Bd]2 [Ac]2) | %26
 [GB]2 !fermata![Ge]4 z2 | [FA]2 [FA][GB] [Ac][Bd][ce][Ac] | [Bd]2 [Bd]2 [FBd]2 [Bd][Bd] | %29
 !fermata![FBd]4 [EAc]4 | [DB]4 z4 |] %31
V:4
 x8 | x8 | x8 | x8 | F4 F4 | FB G2 [FAc]2 F2 |[M:4/4] x8 | x8 | x8 | x8 | x8 | x8 | F2 F2 =E2 F2 | %13
 F2 =E2 x4 | x8 | x8 | x8 | x8 | dddc x4 | x8 | x8 | x8 | x8 | x8 | x8 | x8 | x8 | x8 | F4 x4 | %29
 x8 | x8 |] %31
V:5
 (B,DFB,) (A,C F2) | (G,B,C=E) (F,C F2) | z (D,F,D,) z (G,B,G,) | z (C,E,C,) z (F,EC) | %4
 (DB,A,F,) (B,F,A,F,) | (B,G,CB,) !fermata!A,F,- F,/E/D/C/ |[M:4/4] (B,DFB,) (A,C F2) | %7
 (G,B,C=E) (F,C F2) | z (D,F,D,) z (G,B,G,) | z (C,E,C,) z (F,EC) | (D2 B,2) (A,2 F,2) | %11
 (G,2 A,2) B,2 B,,2 | B,2 A,2 G,2 F,2 | B,,2 C,2 F,4- | F,8 | F,6 B,2 | B,, z B, z E,B,, z2 | %17
 z DF,C z B,F,F | z FF,A, z B,F,!fermata!F | (B,DFB,) (A,C F2) | (G,B,C=E) (F,C F2) | %21
 z (D,F,D,) z (G,B,G,) | z C,E,C, z F,EC | DB, z A, B,B,, z B, | CF,A,F, B,2 B,,2 | z8 | %26
 E,4 !fermata!E,,4 | F,8 | B,4 B,,B,G,=E, | F,4 [F,,F,]4 | [B,,F,]4 z4 |] %31

